X: 48
M:6/8
L:1/8
K:G
|:d3 BAB|G2 d dBG|d3 BAB|EFE AFD|
d3 BAB|GAG Bcd|ege dBG|FGA AFD:|
|:gfe gab|GAG BAG|g2 g gfg|efg afd|
gag gfe|dcB c2 d|ege dBG|FGA AFD:|
|:G3 dGG|BGG dGG|BGG dGG|BGG AFD|

